svg/polywork.svg

<svg width="35" height="35" viewBox="0 0 35 35" fill="none" xmlns="http://www.w3.org/2000/svg">
<path d="M11.9736 34.0002V23.5386H22.8593V27.7885C22.8593 31.1668 20.1379 34.0002 16.6545 34.0002H11.9736Z" fill="#88CFB0"/>
<path d="M23.0771 23.3204V12.2051H33.9627V17.1089C33.9627 20.4871 31.2413 23.3204 27.7579 23.3204H23.0771Z" fill="#F2C94C"/>
<path d="M22.8593 12.2051H11.9736V23.2114H22.8593V12.2051Z" fill="#BD83CE"/>
<path d="M0.871094 11.9875V7.08361C0.871094 3.7054 3.59251 0.87207 7.07591 0.87207H11.7567V11.9875H0.871094Z" fill="#40BE88"/>
<path d="M23.0771 11.9875V0.87207H27.7579C31.1324 0.87207 33.9627 3.59643 33.9627 7.08361V11.9875H23.0771Z" fill="#FF7474"/>
<path d="M22.8593 0.87207H11.9736V11.8785H22.8593V0.87207Z" fill="#6776F9"/>
<path d="M0.871094 27.7885V23.5386H11.7567V34.0002H7.07591C3.59251 34.0002 0.871094 31.2758 0.871094 27.7885Z" fill="#37C2E2"/>
<path d="M11.7567 12.2051H0.871094V23.2114H11.7567V12.2051Z" fill="#F2994A"/>
<path fill-rule="evenodd" clip-rule="evenodd" d="M0 27.7884V7.08333C0 3.16026 3.15684 0 7.07567 0H27.7585C31.6773 0 34.8341 3.16026 34.8341 7.08333V17.109C34.8341 21.032 31.6773 24.1923 27.7585 24.1923H23.7307V27.7884C23.7307 31.7116 20.5739 34.8718 16.6549 34.8718H7.07567C3.15684 34.8718 0 31.7116 0 27.7884ZM10.8856 11.0064H1.85056V6.97436C1.85056 4.14103 4.13654 1.74359 7.07567 1.74359H10.8856V11.0064ZM27.7585 22.4486H23.9484V13.0769H32.9835V17.218C32.9835 20.0513 30.6976 22.4486 27.7585 22.4486ZM16.6549 33.1282H12.845V24.5192H21.8801V27.8974C21.8801 30.7307 19.5941 33.1282 16.6549 33.1282ZM12.845 22.4486H21.8801V13.0769H12.845V22.4486ZM23.9484 11.0064H32.9835V7.08333C32.9835 4.14102 30.5887 1.85256 27.7585 1.85256H23.9484V11.0064ZM21.8801 11.0064H12.845V1.74359H21.8801V11.0064ZM1.7417 24.4102V27.7884C1.7417 30.7307 4.13654 33.0192 6.96682 33.0192H10.8856V24.4102H1.7417ZM10.8856 22.4486H1.7417V13.0769H10.8856V22.4486Z" fill="#2F2F3A"/>
</svg>

<svg xmlns="http://www.w3.org/2000/svg" width="35" height="35" fill="none" viewBox="0 0 35 35"><path fill="#88CFB0" d="M11.974 34V23.54h10.885v4.25c0 3.378-2.721 6.211-6.205 6.211z"/><path fill="#F2C94C" d="M23.077 23.32V12.205h10.886v4.904c0 3.378-2.722 6.211-6.205 6.211z"/><path fill="#BD83CE" d="M22.86 12.205H11.973v11.006h10.885z"/><path fill="#40BE88" d="M.871 11.988V7.084C.871 3.705 3.593.872 7.076.872h4.68v11.115z"/><path fill="#FF7474" d="M23.077 11.988V.872h4.68c3.375 0 6.206 2.724 6.206 6.212v4.904z"/><path fill="#6776F9" d="M22.86.872H11.973v11.006h10.885z"/><path fill="#37C2E2" d="M.871 27.789v-4.25h10.886V34H7.076C3.593 34 .87 31.276.87 27.788"/><path fill="#F2994A" d="M11.757 12.205H.87v11.006h10.886z"/><path fill="#2F2F3A" fill-rule="evenodd" d="M0 27.788V7.083A7.065 7.065 0 0 1 7.076 0h20.683a7.065 7.065 0 0 1 7.075 7.083V17.11a7.065 7.065 0 0 1-7.076 7.083h-4.027v3.596a7.065 7.065 0 0 1-7.076 7.084h-9.58A7.065 7.065 0 0 1 0 27.788m10.886-16.782H1.85V6.974c0-2.833 2.286-5.23 5.225-5.23h3.81zM27.759 22.45h-3.81v-9.372h9.034v4.141c0 2.833-2.285 5.23-5.224 5.23m-11.104 10.68h-3.81v-8.61h9.035v3.378c0 2.834-2.286 5.231-5.225 5.231m-3.81-10.68h9.035v-9.372h-9.035zm11.103-11.443h9.035V7.083c0-2.942-2.394-5.23-5.224-5.23h-3.81zm-2.068 0h-9.035V1.744h9.035zM1.742 24.41v3.378c0 2.943 2.395 5.231 5.225 5.231h3.919V24.41zm9.144-1.961H1.742v-9.372h9.144z" clip-rule="evenodd"/></svg>
